X: 1
T:Pipe Major E.D. Neigh
M:C|
L:1/8
Q:80
C:Jim McGillivrary
S:March
K:HP
|: {gef}e|
{g}A3/4B/4{GdG}c3/4d/4{gef}e3/4c/4{g}A3/4c/4|
{Gdc}d3/4e/4{g}f3/4d/4{gef}e{g}c3/4d/4|  !
{gef}ea3/4g/4{a}f/4a3/4{ef}e3/4d/4|
{gcd}c{g}B/4{d}A3/4{GdG}B{gef}e{g}A3/4B/4{GdG}c3/4d/4{gef}e3/4c/4{g}A3/4
c/4|
{Gdc}d3/4e/4{g}f3/4d/4{gef}e{g}c3/4d/4|  !
{gef}ea3/4f/4{g}e3/4f/4{gde}d3/4B/4|
{g}A2{GAG}A:| |:
{g}c3/4d/4|  !
{gef}ea3/4g/4{afg}f{g}e3/4c/4|
{g}e3/4f/4{gef}e3/4c/4{Gdc}d{g}c3/4d/4|
{gef}ea3/4g/4{a}f/4a3/4{ef}e3/4d/4|  !
{gcd}c{g}B/4{d}A3/4{GdG}B{g}c3/4d/4|1 {gef}ea3/4g/4{afg}f{g}e3/4c/4|
{g}e3/4f/4{gef}e3/4c/4{Gdc}d3/4{g}f/4a3/4d/4|
{gcd}ca3/4f/4{g}e3/4f/4{gde}d3/4B/4|  !
{g}A2{GAG}A:| |:
{gef}e|
{g}A3/4B/4{GdG}c3/4d/4{g}c/4e3/4{g}c/4{d}A3/4|  !
{gde}d3/4A/4{g}d/4f3/4{gef}e3/4d/4{gcd}c3/4B/4|
{g}A3/4B/4{GdG}c3/4d/4{g}e/4a3/4{ef}e3/4d/4|
{gcd}c{g}B/4{d}A3/4{GdG}B{gef}e{g}A3/4B/4{GdG}c3/4d/4{g}c/4e3/4{g}c/4{d}
A3/4|  !
{gde}d3/4A/4{g}d/4f3/4{gef}e3/4d/4c3/4d/4|
{gef}ea3/4f/4{g}e3/4f/4{gde}d3/4B/4|
{g}A2{GAG}A:| |:  !
{g}c3/4d/4|
{gef}e{g}c3/4d/4{g}e/4a3/4c/4e3/4|
{g}f/4a3/4{Gdc}d3/4a/4f/4a3/4f/4{g}d3/4|  !
{gef}e3/4A/4{g}c3/4d/4{g}e/4a3/4{ef}e3/4d/4|
{gcd}c{g}B/4{d}A3/4{GdG}B|1 {g}c3/4d/4|2 {gef}e|1 {gef}e{g}c3/4d/4{g}e/4
a3/4c/4e3/4|
{g}f/4a3/4{Gdc}d3/4a/4f/4a3/4f/4{g}d3/4|  !
{gef}ea3/4f/4{g}e3/4f/4{gde}d3/4B/4|
{g}A2{GAG}A:|2
{g}A3/4B/4{GdG}c3/4d/4{gef}e3/4d/4{g}c3/4e/4|  !
{g}d3/4c/4{g}B/4f3/4{gef}e3/4d/4{g}c3/4d/4|
{gef}ea3/4f/4{g}e3/4f/4{gde}d3/4B/4|
{g}A2{GAG}A:|  !
